X:47
T:Les filles de la Rochelle
R:Chanson
O:France
B:Le livre des Chansons (Henri Davenson) n°47
Z:<anamnese@caramail.com> -- http://anamnese.fr.st
M:6/8
L:1/8
Q:1/4=100
K:G
d2 e | c3 A B c | B2 B d2 e | c3 A B c | B3 d2 e | c3 A B c |!
B2 z G2 A | B2 B B2 B | d2 d G2 A | B2 B B-A G | A2 z G2 A |!
B B B B B B | d2 d G2 A | B c B A2 B | G3 ||
W:Les filles de la Rochelle
W:ont armé un bâtiment, (2x)
W:Pour aller faire la course dedans les mers du levant
W:Ah ! La feuille s'envole s'envole Ah ! La feuille s'envole au vent.
W:
W:La grand'vergue est en ivoire, les poulies en diamant ;
W:La grand'voile est en dentelle, la misaine en satin blanc ; /.../

